X:496
T:Soldier’s Dream,The. RH.496
R:air
S:Rev.R.Harrison’s MS,c1815,Cumbria
N:in a slightly different hand?
O:England
A:Temple Sowerby,Cumbria
Z:vmp.Simon Wilson. Review PJH, 2008.
M:C|
L:1/4
Q:2/4=90
K:Am
” As Writ”E2|G2(AB)|(cB)(cd)|e2e>e|e4|\
e2fe|(dc)dc|BAB2|E3E|E2||!
E2|(AB)(cA)|(Bc)(dB)|e2e>e|e4|\
|c>d|(ea3)|(g/f/) (e/d/) (c/A/)|(Bd)c2|A3A|A4||!
(ef)|(gf)(ga)|(gf)(eg)|(ag)(fe)|e4|\
|(c>d)e2|ee(fe)|(dc)A2|e3e|e4||!
E3|(AB)(cA)|(Bc)(dc)|e2e>e|e4|\
|(c>d)|ea3|(g/f/) (e/d/) (c/A/)|(Bd)B2|A3A|A4|]

